img/scheme/3.svg

<svg width="34" height="27" viewBox="0 0 34 27" fill="none" xmlns="http://www.w3.org/2000/svg">
<path fill-rule="evenodd" clip-rule="evenodd" d="M5.87608 3.91554C6.26824 2.96179 6.92039 2.14909 7.7516 1.57828C8.58281 1.00746 9.55649 0.703669 10.5518 0.704592H23.4853C25.5183 0.704592 27.356 1.96778 28.157 3.91554L29.7671 7.83227C29.9196 8.20317 30.194 8.50837 30.5396 8.68852C31.5561 9.21838 32.2778 10.2039 32.5014 11.3633L33.1824 14.9218C33.2495 15.263 33.282 15.6106 33.282 15.9603V16.8356C33.282 18.5609 32.4892 20.1059 31.2491 21.0682V25.0781C31.2491 25.3592 31.142 25.6287 30.9514 25.8275C30.7608 26.0262 30.5022 26.1379 30.2326 26.1379H26.1668C25.8972 26.1379 25.6386 26.0262 25.448 25.8275C25.2574 25.6287 25.1503 25.3592 25.1503 25.0781V22.2423C22.5238 22.3441 19.5699 22.4288 17.0186 22.4288C14.4672 22.4288 11.5134 22.3441 8.88685 22.2423V25.0781C8.88685 25.3592 8.77976 25.6287 8.58914 25.8275C8.39851 26.0262 8.13997 26.1379 7.87039 26.1379H3.80452C3.53494 26.1379 3.2764 26.0262 3.08577 25.8275C2.89515 25.6287 2.78806 25.3592 2.78806 25.0781V21.0682C1.54797 20.1059 0.755127 18.5609 0.755127 16.8356V15.9603C0.755468 15.6116 0.788835 15.2637 0.854741 14.9218L1.53577 11.3611C1.7594 10.2039 2.48109 9.21626 3.49552 8.68852C3.84273 8.50762 4.11717 8.20422 4.27007 7.83227L5.88015 3.91554H5.87608ZM6.85189 17.6601C7.39106 17.6601 7.90814 17.4368 8.28939 17.0393C8.67064 16.6419 8.88482 16.1028 8.88482 15.5407C8.88482 14.9786 8.67064 14.4395 8.28939 14.042C7.90814 13.6445 7.39106 13.4212 6.85189 13.4212C6.31272 13.4212 5.79564 13.6445 5.41439 14.042C5.03314 14.4395 4.81896 14.9786 4.81896 15.5407C4.81896 16.1028 5.03314 16.6419 5.41439 17.0393C5.79564 17.4368 6.31272 17.6601 6.85189 17.6601ZM27.1812 17.6601C27.7204 17.6601 28.2375 17.4368 28.6187 17.0393C28.9999 16.6419 29.2141 16.1028 29.2141 15.5407C29.2141 14.9786 28.9999 14.4395 28.6187 14.042C28.2375 13.6445 27.7204 13.4212 27.1812 13.4212C26.642 13.4212 26.125 13.6445 25.7437 14.042C25.3625 14.4395 25.1483 14.9786 25.1483 15.5407C25.1483 16.1028 25.3625 16.6419 25.7437 17.0393C26.125 17.4368 26.642 17.6601 27.1812 17.6601ZM12.9507 13.4212C12.4115 13.4212 11.8944 13.6445 11.5132 14.042C11.1319 14.4395 10.9178 14.9786 10.9178 15.5407C10.9178 16.1028 11.1319 16.6419 11.5132 17.0393C11.8944 17.4368 12.4115 17.6601 12.9507 17.6601H21.0824C21.6216 17.6601 22.1387 17.4368 22.5199 17.0393C22.9012 16.6419 23.1153 16.1028 23.1153 15.5407C23.1153 14.9786 22.9012 14.4395 22.5199 14.042C22.1387 13.6445 21.6216 13.4212 21.0824 13.4212H12.9507ZM6.66079 7.46348L8.60427 3.409C8.68877 3.2332 8.81852 3.08537 8.97901 2.98206C9.13949 2.87876 9.32438 2.82404 9.513 2.82403H24.5201C24.7087 2.82404 24.8936 2.87876 25.0541 2.98206C25.2146 3.08537 25.3443 3.2332 25.4288 3.409L27.3723 7.46348C27.4518 7.63442 27.4866 7.82418 27.4733 8.01363C27.4601 8.20308 27.3991 8.38555 27.2967 8.54263C27.1943 8.69972 27.0539 8.82589 26.8898 8.90843C26.7257 8.99097 26.5436 9.02697 26.3619 9.01279C24.512 8.85807 19.5516 8.65249 17.0165 8.65249C14.4815 8.65249 9.51909 8.85807 7.67116 9.01279C7.48946 9.02697 7.30739 8.99097 7.14329 8.90843C6.97918 8.82589 6.83884 8.69972 6.73639 8.54263C6.63395 8.38555 6.57302 8.20308 6.55975 8.01363C6.54648 7.82418 6.58133 7.63442 6.66079 7.46348Z" fill="#C73509"/>
</svg>

<svg width="34" height="27" fill="none" xmlns="http://www.w3.org/2000/svg"><path fill-rule="evenodd" clip-rule="evenodd" d="M5.876 3.916a5.251 5.251 0 0 1 1.876-2.338 4.935 4.935 0 0 1 2.8-.873h12.933c2.033 0 3.871 1.263 4.672 3.21l1.61 3.917c.153.371.427.676.773.857a3.813 3.813 0 0 1 1.961 2.674l.681 3.559c.067.341.1.689.1 1.038v.876c0 1.725-.793 3.27-2.033 4.232v4.01c0 .281-.107.55-.298.75a.996.996 0 0 1-.718.31h-4.066a.996.996 0 0 1-.719-.31 1.083 1.083 0 0 1-.298-.75v-2.836c-2.626.102-5.58.187-8.131.187-2.552 0-5.506-.085-8.132-.187v2.836c0 .281-.107.55-.298.75a.996.996 0 0 1-.719.31H3.805a.996.996 0 0 1-.72-.31 1.083 1.083 0 0 1-.297-.75v-4.01c-1.24-.962-2.033-2.507-2.033-4.232v-.876c0-.348.034-.696.1-1.038l.68-3.56c.224-1.158.946-2.146 1.96-2.673.348-.181.622-.485.775-.857l1.61-3.916h-.004Zm.976 13.744a1.99 1.99 0 0 0 1.437-.62c.382-.398.596-.937.596-1.5 0-.561-.214-1.1-.596-1.498a1.992 1.992 0 0 0-1.437-.62c-.54 0-1.056.223-1.438.62a2.166 2.166 0 0 0-.595 1.499c0 .562.214 1.1.595 1.498.382.398.899.621 1.438.621Zm20.33 0c.538 0 1.056-.223 1.437-.62.38-.398.595-.937.595-1.5 0-.561-.214-1.1-.595-1.498a1.992 1.992 0 0 0-1.438-.62c-.539 0-1.056.223-1.437.62a2.166 2.166 0 0 0-.596 1.499c0 .562.215 1.1.596 1.498.381.398.898.621 1.437.621ZM12.95 13.421c-.54 0-1.057.224-1.438.621a2.166 2.166 0 0 0-.595 1.499c0 .562.214 1.1.595 1.498a1.99 1.99 0 0 0 1.438.621h8.131c.54 0 1.057-.223 1.438-.62a2.17 2.17 0 0 0 .595-1.5c0-.561-.214-1.1-.595-1.498a1.992 1.992 0 0 0-1.438-.62H12.95ZM6.66 7.463 8.604 3.41a1.05 1.05 0 0 1 .375-.427.986.986 0 0 1 .534-.158H24.52c.189 0 .374.055.534.158.16.103.29.251.375.427l1.943 4.054a1.12 1.12 0 0 1-.075 1.08 1.05 1.05 0 0 1-.407.365 1 1 0 0 1-.528.105c-1.85-.155-6.81-.36-9.345-.36-2.535 0-7.498.205-9.346.36a1 1 0 0 1-.528-.105 1.05 1.05 0 0 1-.407-.365 1.111 1.111 0 0 1-.075-1.08Z" fill="#C73509"/></svg>
